X: 1
T: Larry Mills' g\aangl\aat
O: Bruce Sagan & Andrea Hoag
R: air
N: Works well as a "strathspey air"
Z: 1997 by John Chambers <jc:trillian.mit.edu>
M: C
L: 1/8
K: D
DE \
|  "D"F2 F<D A3 F | "Em"G2 G<E B3 d | "A7"c3 B A>G F<E | "D"B2 A2 A>D D<E |
|  "D"F2 F<D A3 F | "Em"G2 G<E B3 d | "A7"c3 d f>e c<e | "D"d4- dc de |]
[| "D"(ef) fd A>d fd | "A7"e>f ec A3 F | "G"G<F GA BA Bc | "D"d2 dc "G"b2"A7"a2 |
|  "D"(ef) fd A>d fd | "A7"e>f ec A3 F | "G"G<F G>A B2 "A7"c2 | "D"d4- d2 |]
